X:5
T:Polska från Västergötland
T:Svenska Folkdansar H2 nr 5
O:Västergötland
B:Traditioner av Svenska Folkdansar Häfte 2, nr 5
R:Polska
Z:Nils L
M:3/4
L:1/8
K:Eb
A>^c e2 d>c | A>^c e2 g2 | f>e d2 e>d | ^c2 A2zz/ ^G/ |
A>^c e2 d>c | A>^c e2 g2 | f>e d2 e>d | ^c2 A2 z2 ::
e2 f2 a2 | g>b a4 | g2 fd fe | ^c>e d4 :|

